X: 476
T: Clinch Mountain Backstep
C:Arr. Clarence White
B: jims roots
M:4/4
L:1/8
Q: 1/4=100
K:Am
V:1 
{G}[A2A][AA][AA] [A2A][AA][AA] | [A2A][AA][AA] [A2A][AA][AA] | {G}[A2A][AA][AA] [A2A][AA][AA] | [A2A][AA][AA] [A2A][AA][AA] ||
ac' |: "A"a2 g2 e2 ^c2 | eAcB A2 ac' | a2 g2 e2 g2 | a^cec "E"e2- e2- | [M:2/4]e2 ac'|
"A"a2 g2 e2 ^c2 | eAcB A2 Ac | "E"dcdc AGAc |[1 "A"A3A A2ac' :|[2 "A"A3A A2 ([GA][AA]) ||
|: "A"[A2A][A2A] [A2A]Ac | dcdc A2{G}[A2A] | Acdc A2A2 | ^cAdA "E"e3e  | [M:2/4]e2 ac'|
 "A"a2 g2 e2 g2 | eAcB A2Ac  | "E"dcdc AGAc |[1 "A"A3A A2 :|[2 "A"A3A A2ac'
% abcbook-tune_id 6298c24528502eec0cac0393


% abcbook-boost 0
% abcbook-tablature 
% abcbook-transpose 
% abcbook-lastupdated 1654178373738
% abcbook-soundfonts 
% abcbook-repeats 1


